X:269
T:Old Copperplate
Z: id:dc-reel-250
M:C
L:1/8
K:A Dorian
A2EA cAAe|aged cAFA|G2DG BGBd|gedc BAGB|!
A2EA cAAe|aged cAGB|ABcd efge|aged cAA2:|!
ageg a2eg|aged cAA2|gfef g2ef|gfge dBGB|!
ageg a2eg|aged cAGB|ABcd efge|aged cAA2:|!

